X:1
T:Sunday's Well
R:waltz
M:3/4
L:1/8
K:A
AF|:E2 A2 AB|c3B BA|e4 (3cBA|ef a2 af|
|e3f fe|c3B BA|B3c BA|F2 A2 AF|
|E2 A2 AB|c3B BA|e4 (3cBA|ef a2 af|
|e2 A2 AB|c3B BA|A2 A,2 A,2|1 A,3B AF:|2 A,3E (3Ace|]
|:a3b ba|ef a2 af|e3f fe|c2cB (3Ace|
|a3b ba|ef a2 ab|c'6|c'3b ba|
|a3b ba|ef a2 af|e3f fe|c3e cB|
|A2 e2 ef|e2 c2 BA|A2 A,2 A,2|1 A,3E (3Ace:|2 A,3E FA|]